img/icon-telgram.svg

<svg width="13" height="13" viewBox="0 0 13 13" fill="none" xmlns="http://www.w3.org/2000/svg">
<path d="M6.50065 10.8335C7.64992 10.8335 8.75212 10.3769 9.56478 9.56429C10.3774 8.75163 10.834 7.64943 10.834 6.50016C10.834 5.35089 10.3774 4.24869 9.56478 3.43603C8.75212 2.62338 7.64992 2.16683 6.50065 2.16683C5.35138 2.16683 4.24918 2.62338 3.43652 3.43603C2.62386 4.24869 2.16732 5.35089 2.16732 6.50016C2.16732 7.64943 2.62386 8.75163 3.43652 9.56429C4.24918 10.3769 5.35138 10.8335 6.50065 10.8335ZM6.50065 11.9168C3.50903 11.9168 1.08398 9.49179 1.08398 6.50016C1.08398 3.50854 3.50903 1.0835 6.50065 1.0835C9.49228 1.0835 11.9173 3.50854 11.9173 6.50016C11.9173 9.49179 9.49228 11.9168 6.50065 11.9168ZM4.81607 7.13391L3.46298 6.71195C3.17048 6.62258 3.16886 6.42108 3.52853 6.27645L8.80057 4.23979C9.10661 4.1152 9.27994 4.27283 9.18082 4.6677L8.28328 8.90354C8.22044 9.20525 8.03898 9.27729 7.78711 9.13808L6.40532 8.11541L5.76128 8.73725C5.69519 8.80116 5.64157 8.85587 5.53973 8.86941C5.43844 8.8835 5.35503 8.85316 5.29382 8.68525L4.82257 7.13012L4.81607 7.13445V7.13391Z" fill="white"/>
</svg>

<svg width="13" height="13" fill="none" xmlns="http://www.w3.org/2000/svg"><path d="M6.5 10.834a4.334 4.334 0 1 0 0-8.668 4.334 4.334 0 0 0 0 8.668Zm0 1.083a5.417 5.417 0 1 1 0-10.833 5.417 5.417 0 0 1 0 10.833ZM4.817 7.134l-1.353-.422c-.293-.09-.294-.29.066-.436L8.8 4.24c.306-.125.479.033.38.428l-.898 4.236c-.063.301-.244.373-.496.234L6.405 8.115l-.644.622c-.066.064-.12.119-.221.132-.102.014-.185-.016-.246-.184L4.823 7.13l-.007.004Z" fill="#fff"/></svg>
